X:47
T:Toss the Feathers No. 2                                                                           
M:C                                                                                                 
L:1/8                                                                                               
K:DMix                                                                                              
D2 ED ADED|ABcA GECE|D2 ED ADED|AddB cAGE|                                                          
D3 D ADED|ABcA GE E2|cABG A2 (3ABc|d2 ed cAGE:|                                                     
Ad d2 Ad d2|Ad d2 ed^cd|eaag a3 g|eaag aged|                                                        
ef (3gfe af (3gfe|f2 ed dcAB|cABG A2 (3ABc|d2 ed cAGB:|
